!!!SOCIAL_FUNCTION:	songs connected with legends
!!!PDT:	1929
!!!OTL: No_33_Four_Fires_on_the_Ground.krn
!!!REG: Southwest
!!!LANG: Non-Tone
!!!LING_GROUP: Uto-Aztecan
**kern
*staff1
=1-
*clefF4
*k[]
*M2/4
8G\L
8A\J
8d\L
16d\L
16B\JJ
=2
(8B\L
16G\L)
16G\JJ
8.A\L
16G\Jk
=3
16A\LL
16G\J
8A\J
8.A\L
16A\Jk
=4
8.A\L
16G\Jk
4G\
=5!|:
8A\L
8A\J
8B\L
16B\L
16A\JJ
=6
8.A\L
16G\Jk
8B\L
16B\L
16A\JJ
=7
8.A\L
16A\Jk
8.A\L
16A\Jk
=8
2A\
==:|!
*-
